svgs/duotone/circle-d.svg

<svg xmlns="http://www.w3.org/2000/svg" viewBox="0 0 512 512"><!-- Font Awesome Pro 6.0.0-alpha2 by @fontawesome - https://fontawesome.com License - https://fontawesome.com/license (Commercial License) --><defs><style>.fa-secondary{opacity:.4}</style></defs><path d="M254.406 176H208V336H254.406C299.391 336 336 300.125 336 256C336 211.891 299.391 176 254.406 176ZM256 16C123.451 16 16 123.451 16 256S123.451 496 256 496S496 388.549 496 256S388.549 16 256 16ZM254.406 384H184C170.75 384 160 373.25 160 360V152C160 138.75 170.75 128 184 128H254.406C325.859 128 384 185.422 384 256C384 326.594 325.859 384 254.406 384Z" class="fa-secondary"/><path d="M254.406 128H184C170.75 128 160 138.75 160 152V360C160 373.25 170.75 384 184 384H254.406C325.859 384 384 326.594 384 256C384 185.422 325.859 128 254.406 128ZM254.406 336H208V176H254.406C299.391 176 336 211.891 336 256C336 300.125 299.391 336 254.406 336Z" class="fa-primary"/></svg>

<svg xmlns="http://www.w3.org/2000/svg" viewBox="0 0 512 512"><!--! Font Awesome Pro 6.3.0 by @fontawesome - https://fontawesome.com License - https://fontawesome.com/license (Commercial License) Copyright 2023 Fonticons, Inc. --><defs><style>.fa-secondary{opacity:.4}</style></defs><path class="fa-primary" d="M254.4 128H184C170.8 128 160 138.8 160 152v208C160 373.3 170.8 384 184 384h70.41C325.9 384 384 326.6 384 256C384 185.4 325.9 128 254.4 128zM254.4 336H208v-160h46.41C299.4 176 336 211.9 336 256C336 300.1 299.4 336 254.4 336z"/><path class="fa-secondary" d="M254.4 176H208v160h46.41C299.4 336 336 300.1 336 256C336 211.9 299.4 176 254.4 176zM256 0C114.6 0 0 114.6 0 256s114.6 256 256 256s256-114.6 256-256S397.4 0 256 0zM254.4 384H184C170.8 384 160 373.3 160 360v-208C160 138.8 170.8 128 184 128h70.41C325.9 128 384 185.4 384 256C384 326.6 325.9 384 254.4 384z"/></svg>
